X: 29003
T: Naughty Noochie
R: jig
M: 6/8
K: Gmajor
d|g2d dBd|g2d dBd|Bcd cBA|BG2 G2d|
g2d dBd|gab a2g|f2a gfe|fd2 d^cd|
e2e d2d|cdc B2B|cBA BAG|A2F D2d|
g2d dBd|cde d2d|gfg aga|bg2 g2B||
e2e d2d|cdc B2B|BcB AGF|E3 E2B|
e2e d2d|cdc B2B|BcB AGA|B2B BAB|
cdc B2B|cdc B2B|cBA BAG|A2F D2B|
e2e d2d|cdc B2B|BcB AGF|E3 D3||

